X:2
M:6/8
L:1/8
Q:3/8=120
K:G
|: D2 d dcB | d2 c cBA | gfe dcB | ABG FED | D2 d dcB | d2 c cBA | EcA FEF | G3G,3 :|

